X:1
T:Drink to Me Only, CMD
T:Drink to Me Only, CMD
T:Old English Air
T:Public Domain Courtesy of the Cyber Hymnal™
C:Old English Air
Z:Public Domain
Z:Courtesy of the Cyber Hymnal™
%%score ( 1 2 ) ( 3 4 )
L:1/8
Q:1/4=85
M:6/8
K:Eb
V:1 treble 
V:2 treble 
V:3 bass 
V:4 bass 
V:1
 [EG][EG][EG] [EA]2 [DA] | ([EB][DA])[EG] (F[EG])[DA] | (BE)[EA] G2 [DF] | E3- E2 z | %4
 [EG][EG][EG] [EA]2 [DA] |!<(! ([EB][DA])!<)![EG]!<(! F[EG][DA]!<)! | BE[EA] G2 [DF] | %7
 E3- E z [GB] | ([GB][EG])[FB] [Ge]2 [FB] | ([GB][EG])[FB] B2 [EB] | c2 [GB]"^riten." (BB)[EG] | %11
 G3 [DF]2 z | [EG][EG][EG] [EA]2 [DA] | [EB][DA][_DG] ([CF][=EG])!<(![FA]!<)! | %14
 (BE)!>(![EA]!>)! G2 [DF] | E3- E2 z |] %16
V:2
 x6 | x3 F x2 | E2 (E C) x2 | E3- E2 x | x6 | x3 F x2 | E2 (E C) x2 | E3- E x2 | x6 | x3 (GF) x | %10
 (EF) F2 x2 | (EDC) x3 | x6 | x6 | E2 (E C) x2 | E3- E2 x |] %16
V:3
 [E,B,][E,B,][E,B,] [F,B,]2 [F,B,] | B,2 [E,B,] B,2 [F,B,] | [G,B,]2 [A,C] B,2 [B,,A,] | %3
 [E,G,]3- [E,G,]2 z | [E,B,][E,B,][E,B,] [F,B,]2 [F,B,] | B,2 [E,B,] B,2 [F,B,] | %6
 [G,B,]2 [A,C] B,2 [B,,A,] | [E,G,]3- [E,G,] z [E,B,] | [E,B,]2 [D,B,] (B,C)[E,D] | %9
 (EB,)[D,B,] B,2 [G,E] | (ED)[G,E] [D,B,]2 [E,B,] | [B,,B,]3- [B,,B,]2 z | %12
 [E,B,][E,B,][E,B,] [F,B,]2 [F,B,] | B,2 [E,B,] C2 [F,C] | [B,,G,]2 [B,,C] [B,,B,]2 [B,,A,] | %15
 [E,G,]3- [E,G,]2 z |] %16
V:4
 x6 | (G,F,) (D, E,) x2 | x3 B,2 x | x6 | x6 | (G,F,) (D, E,) x2 | x3 B,2 x | x6 | x3 E,2 x | %9
 E,2 (E, F,) x2 | A,2 x4 | x6 | x6 | G,F, (A, G,) x2 | x6 | x6 |] %16

